X: 4
T: The Rollicking Boys Of Tandragee
R: jig
M: 6/8
L: 1/8
K: Emin
BBB EDE|BAB d2 B|ABA FED|FED FGA|
BBB EDE|BAB d2 f|edB AFA|BEE E3:|
Bee efe|def afe|edd dcd|Bcd dBA|
Bee efe|def afe|edB AFA|BEE E3:|


Tune 1392	Setting 14756

